src/images/icons/play-blue.svg

<svg width="24" height="27" viewBox="0 0 24 27" fill="none" xmlns="http://www.w3.org/2000/svg">
<path fill-rule="evenodd" clip-rule="evenodd" d="M0.515259 26.684C1.0374 26.597 10.6099 20.8534 11.7412 20.1573L23.0542 13.4565L22.445 13.0214C22.184 12.8473 22.0099 12.7603 21.7488 12.6733C21.2267 12.3252 20.7916 12.0641 20.3565 11.8031C19.3122 11.1939 18.442 10.6718 17.5717 10.1496C15.6572 9.01833 13.8298 7.97406 11.8282 6.84276C10.4359 5.97253 1.21144 0.403063 0.515259 0.31604V26.684Z" fill="#003067"/>
</svg>

<svg xmlns="http://www.w3.org/2000/svg" width="24" height="27" fill="none" viewBox="0 0 24 27">
	<path fill="#003067" fill-rule="evenodd" d="M.515 26.684c.522-.087 10.095-5.83 11.226-6.527l11.313-6.7-.609-.436a2.602 2.602 0 0 0-.696-.348 32.29 32.29 0 0 0-1.392-.87 248.749 248.749 0 0 1-2.785-1.653 337.073 337.073 0 0 0-5.744-3.307C10.436 5.973 1.211.403.515.316v26.368z" clip-rule="evenodd"/>
</svg>
